icons/svgs/alarm-clock-outline.svg

<svg width="24" height="24" viewBox="0 0 24 24" fill="none" xmlns="http://www.w3.org/2000/svg">
<path d="M8.25 3.01562L2.54688 7.74219C2.19531 7.15625 2 6.45312 2 5.75C2 3.67969 3.64062 2 5.71094 2C6.6875 2 7.58594 2.39062 8.25 3.01562ZM12 6.375C9.53906 6.375 7.27344 7.70312 6.02344 9.8125C4.8125 11.9609 4.8125 14.5781 6.02344 16.6875C7.27344 18.8359 9.53906 20.125 12 20.125C14.4219 20.125 16.6875 18.8359 17.9375 16.6875C19.1484 14.5781 19.1484 11.9609 17.9375 9.8125C16.6875 7.70312 14.4219 6.375 12 6.375ZM12 22H11.9609C9.89062 22 7.97656 21.2969 6.49219 20.0859L4.8125 21.7266C4.46094 22.1172 3.875 22.1172 3.52344 21.7266C3.13281 21.375 3.13281 20.7891 3.52344 20.3984L5.16406 18.7578C3.95312 17.2734 3.25 15.3594 3.25 13.25C3.25 8.44531 7.15625 4.5 12 4.5C16.8047 4.5 20.75 8.44531 20.7109 13.2891C20.7109 15.3594 20.0078 17.2734 18.7969 18.7578L20.4375 20.4375C20.8281 20.7891 20.8281 21.375 20.4375 21.7266C20.0859 22.1172 19.5 22.1172 19.1484 21.7266L17.4688 20.0859C15.9844 21.2969 14.0703 22 12 22ZM21.4141 7.74219L15.75 3.01562C16.4141 2.39062 17.2734 2 18.25 2C20.3203 2 22 3.67969 22 5.75C22 6.45312 21.7656 7.15625 21.4141 7.74219ZM12.9375 9.1875H12.8984V12.8984L14.5 14.5C14.8906 14.8516 14.8906 15.4375 14.5 15.7891C14.1484 16.1797 13.5625 16.1797 13.2109 15.7891L11.3359 13.9141C11.1406 13.7578 11.0625 13.5234 11.0625 13.25V9.1875C11.0625 8.67969 11.4531 8.25 12 8.25C12.5078 8.25 12.9375 8.67969 12.9375 9.1875Z" fill="black"/>
</svg>

<svg xmlns="http://www.w3.org/2000/svg" width="24" height="24" fill="currentColor" class="icon-alarm-clock-outline" viewBox="0 0 24 24">
  <mask id="a" width="20" height="21" x="2" y="2" maskUnits="userSpaceOnUse" style="mask-type:alpha">
    <path d="M8.25 3.016 2.547 7.742A3.9 3.9 0 0 1 2 5.75C2 3.68 3.64 2 5.71 2c.978 0 1.876.39 2.54 1.016M12 6.375c-2.46 0-4.727 1.328-5.977 3.438-1.21 2.148-1.21 4.765 0 6.874A6.89 6.89 0 0 0 12 20.126a6.87 6.87 0 0 0 5.938-3.437c1.21-2.11 1.21-4.727 0-6.875-1.25-2.11-3.516-3.438-5.938-3.438M12 22h-.04c-2.07 0-3.983-.703-5.468-1.914l-1.68 1.64a.856.856 0 0 1-1.289 0c-.39-.351-.39-.937 0-1.328l1.641-1.64c-1.21-1.485-1.914-3.399-1.914-5.508C3.25 8.445 7.156 4.5 12 4.5c4.805 0 8.75 3.945 8.71 8.79 0 2.07-.702 3.983-1.913 5.468l1.64 1.68a.855.855 0 0 1 0 1.289.856.856 0 0 1-1.289 0l-1.68-1.641C15.985 21.296 14.07 22 12 22m9.414-14.258L15.75 3.016C16.414 2.39 17.273 2 18.25 2 20.32 2 22 3.68 22 5.75c0 .703-.234 1.406-.586 1.992m-8.477 1.446h-.039v3.71L14.5 14.5c.39.352.39.938 0 1.29a.856.856 0 0 1-1.29 0l-1.874-1.876c-.195-.156-.274-.39-.274-.664V9.188c0-.508.391-.938.938-.938a.95.95 0 0 1 .938.938"/>
  </mask>
  <g mask="url(#a)">
    <path d="M0 0h24v24H0z"/>
  </g>
</svg>
